X:1009
L:1/4
M:6/4
K:G
 D | E G G G2 E | E G G G2 E | E G G G A B | B e d B2 A/G/ | A A e B B d | A3/2 B/A/G/ E2 D | 
 E G G g2 D | E G G G2 D | E G G g a b | d3/2 b/a/b/ g2 D | E G G G A B | B e d B2 A G | 
 A A e B B d | A B d e2 d/B/ | d d e g2 e/d/ | e e g a2 g/e/ | g g d/e/ g g d/e/ | g g a b3 | 
 b b b b2 a/g/ | a/g/a/b/a/b/ a2 g | e e g/e/ d d e/d/ | B B d/B/ A2 G | G G B/d/ =f2 e/d/ | 
 e e g e2 d/B/ | d d g B B d | A3/2 B/A/G/ E2 D ||

